X:1
T:Gwylfa, 88.86
T:Gwylfa, 88.86
T:D. Lloyd Evans
T:Public Domain Courtesy of the Cyber Hymnal™
C:D. Lloyd Evans
Z:Public Domain
Z:Courtesy of the Cyber Hymnal™
%%score ( 1 2 ) ( 3 4 )
L:1/8
Q:1/4=115
M:3/4
K:Ab
V:1 treble 
V:2 treble 
V:3 bass 
V:4 bass 
V:1
 [EA]2 [EB]2 [EA]2 | c4 [_GA]2 | (A2 B2) [EG]2 | [EA]6 | [Ac]2 [GB]2 [Ac]2 | [Bd]4 [Ac]2 | %6
 (c2 B2) F2 | [EG]6 | [CE]2 [DF]2 [CE]2 | [Ec]4 [_Ge]2 | [Fe]4 [A=d]2 | [Gd]6 | %12
 [_Gc]2 [FB]2 [_Fd]2 | [EA]4 [EG]2 | [EA]6 |] %15
V:2
 x6 | (E2 A2) x2 | F4 x2 | x6 | x6 | x6 | F4 F2 | x6 | x6 | x6 | x6 | x6 | x6 | x6 | x6 |] %15
V:3
 [A,C]2 [A,D]2 [A,C]2 | [A,E]4 [C,E]2 | [D,D]4 [E,D]2 | [A,,C]6 | [A,E]2 [B,E]2 [A,E]2 | %5
 [G,E]4 [A,E]2 | [D,F]4 [=D,B,]2 | [E,B,]6 | A,2 A,2 A,2 | [A,E]4 [=A,C]2 | [B,F]4 [B,F]2 | %11
 [E,E]6 | [A,E]2 [D,D]2 [D,A,]2 | (C2 B,2) [E,D]2 | [A,,C]6 |] %15
V:4
 x6 | x6 | x6 | x6 | x6 | x6 | x6 | x6 | A,2 A,2 A,2 | x6 | x6 | x6 | x6 | E,4 x2 | x6 |] %15

